modules/themify-icons/icons/angle-double-right.svg

<?xml version="1.0" encoding="utf-8"?>
<!-- Generated by IcoMoon.io -->
<!DOCTYPE svg PUBLIC "-//W3C//DTD SVG 1.1//EN" "http://www.w3.org/Graphics/SVG/1.1/DTD/svg11.dtd">
<svg version="1.1" xmlns="http://www.w3.org/2000/svg" xmlns:xlink="http://www.w3.org/1999/xlink" width="17" height="17" viewBox="0 0 17 17">
<g>
</g>
	<path d="M9.644 8.5l-6.854 6.854-0.707-0.707 6.146-6.147-6.146-6.146 0.707-0.708 6.854 6.854zM7.634 1.646l-0.707 0.708 6.146 6.146-6.146 6.146 0.707 0.707 6.853-6.853-6.853-6.854z" fill="#000000" />
</svg>

<svg xmlns="http://www.w3.org/2000/svg" width="17" height="17"><path d="M9.644 8.5L2.79 15.354l-.707-.707L8.229 8.5 2.083 2.354l.707-.708L9.644 8.5zm-2.01-6.854l-.707.708L13.073 8.5l-6.146 6.146.707.707L14.487 8.5 7.634 1.646z"/></svg>
